X:501
T:Polska # 501
T: efter Melker Andersson
Q: 110
M:3/4
L:1/16
K: D
(dA)FA D2DF A,4| D2DF E2EG F4| DEFG ABcd efge| d2f2 (ed)cB A4|
(dA)FA D2DF A,4| D2DF E2EG F4| DEFG ABcd e2f2| (gf)ed c2d2 d4:|
|: ABcd e2eg f2fa| g2gb agfe f2d2|  ABcd e2eg f2fa| g2gb agfe f2d2|
(dA)FA D2DF A,4| D2DF E2EG F4| DEFG ABcd e2f2| (gf)ed c2d2 d4:|

